X:1
L:1/4
M:3/4
K:D
 A/F/ |:""D"" D2 F | A F D |""G"" G2 B | d c B |""D"" A2 B | A F D |""A"" E3- | E A F |""D"" D2 F | A F D | 
""G"" G2 B | d c B |""D"" A2 F |""A"" G F E |""D"" D3- | D2 A |""G"" G2 B | d c B |""D"" A2 B | A F D | 
""G"" G2 B |""D"" A2 F |""A"" E3- | E A F |""D"" D2 F | A F D |""G"" G2 B | d c B |""D"" A2 F |""A"" G F E | 
""D"" D3- | D2 A :|
